X: 41394
T: Twelve Pins, The
R: reel
M: 4/4
K: Gmajor
dB3 dBGB|dA3 dAFA|DEFG ABcA|defg a2fe|
dB3 dBGB|dA3 dAFA|D2 FG ABcA|d2cd AGG2:|
f3e d2fg|adfd cAAB|cA3 D2FA|cedB cA3|
f3e defg|adfd cAAB|cBcB cBAB|ccdc BGGg||
fd3 a2dd|fded cAAB|c2cB cdeg|a2ga fdde|
f3g a3g|fefd cAAB|cBcB cBAB|c2dc ABce||

